X: 1
T: Will You Come Home With Me
R: jig
M: 6/8
L: 1/8
K: Gmaj
dge fdc|BdB cAF|~G3 AcA|~G3 ABc|
dge fdc|BdB cAF|~G3 AcA|~G3 GBc:|
|:d2B c2A|BdB cAF|~G3 AcA|~G3 ABc|
d2B c2A|BdB cAF|~G3 AcA|GAG GBc:|


Tune 1220	Setting 14524

